._scraped/app.urodapter.com/img/icons/menu-icon-04.svg

<svg fill="none" height="33" viewBox="0 0 33 33" width="33" xmlns="http://www.w3.org/2000/svg"><path d="m20.7336 3c-.3497 0-.6331.28336-.6331.63304s.2834.63304.6331.63304h7.102l-7.1322 7.13222c-2.2006-1.98954-5.1065-3.21341-8.3018-3.21341-6.83686 0-12.40156948 5.56471-12.40156948 12.40751 0 6.8429 5.56470948 12.4076 12.40756948 12.4076 6.8428 0 12.4075-5.5647 12.4075-12.4076 0-3.1953-1.2238-6.1012-3.2134-8.3018l7.1323-7.13224v7.10214c0 .3496.2833.633.633.633s.633-.2834.633-.633v-9.2605zm-8.326 28.7339c-6.1435 0-11.14149-4.998-11.14149-11.1415 0-6.1434 4.99799-11.14144 11.14149-11.14144s11.1415 4.99804 11.1415 11.14144c0 6.1435-4.998 11.1415-11.1415 11.1415z" fill="#52b2d6"/></svg>

<svg width="33" height="33" viewBox="0 0 33 33" fill="none" xmlns="http://www.w3.org/2000/svg">
<path d="M20.7336 3C20.3839 3 20.1005 3.28336 20.1005 3.63304C20.1005 3.98272 20.3839 4.26608 20.7336 4.26608H27.8356L20.7034 11.3983C18.5028 9.40876 15.5969 8.18489 12.4016 8.18489C5.56474 8.18489 3.05176e-05 13.7496 3.05176e-05 20.5924C3.05176e-05 27.4353 5.56474 33 12.4076 33C19.2504 33 24.8151 27.4353 24.8151 20.5924C24.8151 17.3971 23.5913 14.4912 21.6017 12.2906L28.734 5.15836V12.2605C28.734 12.6101 29.0173 12.8935 29.367 12.8935C29.7167 12.8935 30 12.6101 30 12.2605V3H20.7336ZM12.4076 31.7339C6.2641 31.7339 1.26611 26.7359 1.26611 20.5924C1.26611 14.449 6.2641 9.45096 12.4076 9.45096C18.5511 9.45096 23.5491 14.449 23.5491 20.5924C23.5491 26.7359 18.5511 31.7339 12.4076 31.7339Z" fill="#52B2D6"/>
</svg>
